assets/twitter.svg

<svg width="80" height="80" viewBox="0 0 80 80" fill="none" xmlns="http://www.w3.org/2000/svg">
<rect width="80" height="80" rx="40" fill="#33CCFF"/>
<path d="M59.855 27.3346C58.5341 27.9036 57.1454 28.2998 55.7232 28.5135C56.3881 28.3994 57.3664 27.2015 57.7559 26.7167C58.3475 25.9854 58.7984 25.1505 59.0856 24.2545C59.0856 24.1879 59.1521 24.0929 59.0856 24.0453C59.0521 24.027 59.0146 24.0174 58.9764 24.0174C58.9382 24.0174 58.9007 24.027 58.8672 24.0453C57.3229 24.8823 55.6795 25.5211 53.9756 25.9467C53.9162 25.9648 53.853 25.9664 53.7927 25.9514C53.7325 25.9363 53.6775 25.9051 53.6336 25.8611C53.501 25.703 53.3582 25.5538 53.2062 25.4143C52.5113 24.7911 51.7228 24.281 50.8696 23.9027C49.718 23.4298 48.4741 23.225 47.2318 23.3038C46.0264 23.38 44.8496 23.7036 43.7745 24.2545C42.7158 24.8353 41.7853 25.6243 41.039 26.5741C40.2539 27.5517 39.6872 28.6863 39.3768 29.9014C39.1209 31.0573 39.0918 32.252 39.2913 33.4189C39.2913 33.6186 39.2913 33.6471 39.1203 33.6186C32.3481 32.6203 26.7916 30.2152 22.2515 25.053C22.052 24.8249 21.9475 24.8249 21.7861 25.053C19.8104 28.0571 20.7697 32.8105 23.2393 35.1586C23.5717 35.4724 23.9137 35.7766 24.2746 36.0618C23.1423 35.9813 22.0377 35.6742 21.0262 35.1586C20.8362 35.035 20.7317 35.1016 20.7222 35.3298C20.6953 35.6461 20.6953 35.9641 20.7222 36.2804C20.9204 37.7964 21.5173 39.2324 22.4519 40.4417C23.3864 41.651 24.6251 42.5902 26.0413 43.1633C26.3865 43.3113 26.7462 43.4228 27.1146 43.496C26.0664 43.7025 24.9913 43.7347 23.9327 43.5911C23.7047 43.5435 23.6192 43.6671 23.7047 43.8858C25.1009 47.6884 28.1309 48.8483 30.3535 49.4947C30.6574 49.5422 30.9613 49.5422 31.3033 49.6183C31.3033 49.6183 31.3033 49.6183 31.2463 49.6753C30.5909 50.8732 27.9409 51.6812 26.7251 52.0995C24.506 52.8973 22.1401 53.2023 19.7914 52.9932C19.421 52.9361 19.3355 52.9456 19.2405 52.9932C19.1455 53.0407 19.2405 53.1453 19.345 53.2403C19.8199 53.5541 20.2948 53.8298 20.7887 54.0959C22.2591 54.8986 23.8136 55.5363 25.4239 55.9973C33.7633 58.2979 43.1476 56.6057 49.4069 50.3788C54.327 45.4924 56.0557 38.7522 56.0557 32.0024C56.0557 31.7457 56.3691 31.5936 56.5496 31.4605C57.7944 30.4898 58.8918 29.3434 59.8075 28.0571C59.9661 27.8654 60.0474 27.6213 60.0354 27.3727V27.3727C60.0354 27.2301 60.0355 27.2586 59.855 27.3346Z" fill="white"/>
</svg>

<svg xmlns="http://www.w3.org/2000/svg" width="80" height="80" fill="none"><rect width="80" height="80" fill="#3CF" rx="40"/><path fill="#fff" d="M59.855 27.335c-1.32.569-2.71.965-4.132 1.178.665-.114 1.643-1.312 2.033-1.796a7.607 7.607 0 0 0 1.33-2.462c0-.067.066-.162 0-.21a.228.228 0 0 0-.219 0 20.888 20.888 0 0 1-4.891 1.902.343.343 0 0 1-.342-.086 4.747 4.747 0 0 0-.428-.447 8.907 8.907 0 0 0-2.336-1.511 8.208 8.208 0 0 0-3.638-.6 8.798 8.798 0 0 0-3.457.951 8.96 8.96 0 0 0-2.736 2.32 8.787 8.787 0 0 0-1.662 3.327 9.144 9.144 0 0 0-.086 3.518c0 .2 0 .228-.17.2-6.773-.999-12.33-3.404-16.87-8.566-.199-.228-.303-.228-.465 0-1.976 3.004-1.016 7.757 1.453 10.106.333.313.675.618 1.036.903a8.476 8.476 0 0 1-3.249-.903c-.19-.124-.294-.057-.304.17a5.609 5.609 0 0 0 0 .951 8.636 8.636 0 0 0 5.32 6.883c.345.148.704.26 1.073.333a9.71 9.71 0 0 1-3.182.095c-.228-.047-.314.076-.228.295 1.396 3.802 4.426 4.962 6.649 5.609.303.047.607.047.95.123l-.058.057c-.655 1.198-3.305 2.006-4.52 2.425a16.238 16.238 0 0 1-6.935.893c-.37-.057-.456-.047-.55 0-.096.048 0 .152.104.247.475.314.95.59 1.444.856a22.73 22.73 0 0 0 4.635 1.901c8.34 2.3 17.724.609 23.983-5.618 4.92-4.887 6.649-11.627 6.649-18.377 0-.256.313-.408.494-.542a16.312 16.312 0 0 0 3.258-3.403.998.998 0 0 0 .227-.684c0-.143 0-.114-.18-.038Z"/></svg>
